gtk-icons/Papirus-GTK/22x22/actions/adjustlevels.svg

<?xml version="1.0" encoding="UTF-8" standalone="no"?>
<!-- Created with Inkscape (http://www.inkscape.org/) -->
<svg id="svg4355" xmlns:rdf="http://www.w3.org/1999/02/22-rdf-syntax-ns#" xmlns="http://www.w3.org/2000/svg" height="22" width="22" version="1.1" xmlns:cc="http://creativecommons.org/ns#" xmlns:dc="http://purl.org/dc/elements/1.1/">
 <defs id="defs4357">
  <style id="current-color-scheme" type="text/css">.ColorScheme-Text {
        color:#4d4d4d;
      }
      .ColorScheme-Background {
        color:#eff0f1;
      }
      .ColorScheme-Highlight {
        color:#3daee9;
      }
      .ColorScheme-ViewText {
        color:#31363b;
      }
      .ColorScheme-ViewBackground {
        color:#fcfcfc;
      }
      .ColorScheme-ViewHover {
        color:#93cee9;
      }
      .ColorScheme-ViewFocus{
        color:#3daee9;
      }
      .ColorScheme-ButtonText {
        color:#31363b;
      }
      .ColorScheme-ButtonBackground {
        color:#eff0f1;
      }
      .ColorScheme-ButtonHover {
        color:#93cee9;
      }
      .ColorScheme-ButtonFocus{
        color:#3daee9;
      }</style>
 </defs>
 <metadata id="metadata4360">
  <rdf:RDF>
   <cc:Work rdf:about="">
    <dc:format>image/svg+xml</dc:format>
    <dc:type rdf:resource="http://purl.org/dc/dcmitype/StillImage"/>
    <dc:title/>
   </cc:Work>
  </rdf:RDF>
 </metadata>
 <g id="layer1" transform="translate(-544.57 -742.93)">
  <rect id="rect4035" class="ColorScheme-Text" height="11" width="0" y="747.55" x="507.15" fill="currentColor"/>
  <rect id="rect4035-5" class="ColorScheme-Text" height="11" width="0" y="745.5" x="525.19" fill="currentColor"/>
  <rect id="rect4035-8" class="ColorScheme-Text" height="11" width="0" y="747.55" x="507.15" fill="currentColor"/>
  <rect id="rect4035-59" class="ColorScheme-Text" height="11" width="0" y="747.55" x="507.15" fill="currentColor"/>
  <rect id="rect4035-6" class="ColorScheme-Text" height="11" width="0" y="742.72" x="499.85" fill="currentColor"/>
  <rect id="rect4035-5-1" class="ColorScheme-Text" height="11" width="0" y="740.67" x="517.89" fill="currentColor"/>
  <rect id="rect4035-8-3" class="ColorScheme-Text" height="11" width="0" y="742.72" x="499.85" fill="currentColor"/>
  <rect id="rect4035-59-4" class="ColorScheme-Text" height="11" width="0" y="742.72" x="499.85" fill="currentColor"/>
  <rect id="rect4035-1" class="ColorScheme-Text" height="11" width="0" y="746.94" x="505.86" fill="currentColor"/>
  <rect id="rect4035-5-0" class="ColorScheme-Text" height="11" width="0" y="744.88" x="523.9" fill="currentColor"/>
  <rect id="rect4035-8-1" class="ColorScheme-Text" height="11" width="0" y="746.94" x="505.86" fill="currentColor"/>
  <rect id="rect4035-59-1" class="ColorScheme-Text" height="11" width="0" y="746.94" x="505.86" fill="currentColor"/>
  <rect id="rect4035-7" class="ColorScheme-Text" height="11" width="0" y="747.55" x="507.15" fill="currentColor"/>
  <rect id="rect4035-5-7" class="ColorScheme-Text" height="11" width="0" y="745.5" x="525.19" fill="currentColor"/>
  <rect id="rect4035-8-16" class="ColorScheme-Text" height="11" width="0" y="747.55" x="507.15" fill="currentColor"/>
  <rect id="rect4035-59-18" class="ColorScheme-Text" height="11" width="0" y="747.55" x="507.15" fill="currentColor"/>
  <rect id="rect4035-6-5" class="ColorScheme-Text" height="11" width="0" y="742.72" x="499.85" fill="currentColor"/>
  <rect id="rect4035-5-1-8" class="ColorScheme-Text" height="11" width="0" y="740.67" x="517.89" fill="currentColor"/>
  <rect id="rect4035-8-3-8" class="ColorScheme-Text" height="11" width="0" y="742.72" x="499.85" fill="currentColor"/>
  <rect id="rect4035-59-4-7" class="ColorScheme-Text" height="11" width="0" y="742.72" x="499.85" fill="currentColor"/>
  <rect id="rect4035-1-7" class="ColorScheme-Text" height="11" width="0" y="746.94" x="505.86" fill="currentColor"/>
  <rect id="rect4035-5-0-8" class="ColorScheme-Text" height="11" width="0" y="744.88" x="523.9" fill="currentColor"/>
  <rect id="rect4035-8-1-0" class="ColorScheme-Text" height="11" width="0" y="746.94" x="505.86" fill="currentColor"/>
  <rect id="rect4035-59-1-3" class="ColorScheme-Text" height="11" width="0" y="746.94" x="505.86" fill="currentColor"/>
  <rect id="rect4035-0" class="ColorScheme-Text" height="11" width="0" y="750.93" x="504.62" fill="currentColor"/>
  <rect id="rect4035-5-5" class="ColorScheme-Text" height="11" width="0" y="748.88" x="522.66" fill="currentColor"/>
  <rect id="rect4035-8-6" class="ColorScheme-Text" height="11" width="0" y="750.93" x="504.62" fill="currentColor"/>
  <rect id="rect4035-59-11" class="ColorScheme-Text" height="11" width="0" y="750.93" x="504.62" fill="currentColor"/>
  <rect id="rect4035-9" class="ColorScheme-Text" height="11" width="0" y="747.3" x="488.63" fill="currentColor"/>
  <rect id="rect4035-5-8" class="ColorScheme-Text" height="11" width="0" y="745.25" x="506.67" fill="currentColor"/>
  <rect id="rect4035-8-0" class="ColorScheme-Text" height="11" width="0" y="747.3" x="488.63" fill="currentColor"/>
  <rect id="rect4035-59-1-8" class="ColorScheme-Text" height="11" width="0" y="747.3" x="488.63" fill="currentColor"/>
  <rect id="rect4035-3" class="ColorScheme-Text" height="11" width="0" y="747.55" x="507.15" fill="currentColor"/>
  <rect id="rect4035-5-2" class="ColorScheme-Text" height="11" width="0" y="745.5" x="525.19" fill="currentColor"/>
  <rect id="rect4035-8-7" class="ColorScheme-Text" height="11" width="0" y="747.55" x="507.15" fill="currentColor"/>
  <rect id="rect4035-59-43" class="ColorScheme-Text" height="11" width="0" y="747.55" x="507.15" fill="currentColor"/>
  <rect id="rect4035-6-2" class="ColorScheme-Text" height="11" width="0" y="742.72" x="499.85" fill="currentColor"/>
  <rect id="rect4035-5-1-6" class="ColorScheme-Text" height="11" width="0" y="740.67" x="517.89" fill="currentColor"/>
  <rect id="rect4035-8-3-4" class="ColorScheme-Text" height="11" width="0" y="742.72" x="499.85" fill="currentColor"/>
  <rect id="rect4035-59-4-8" class="ColorScheme-Text" height="11" width="0" y="742.72" x="499.85" fill="currentColor"/>
  <rect id="rect4035-1-8" class="ColorScheme-Text" height="11" width="0" y="746.94" x="505.86" fill="currentColor"/>
  <rect id="rect4035-5-0-0" class="ColorScheme-Text" height="11" width="0" y="744.88" x="523.9" fill="currentColor"/>
  <rect id="rect4035-8-1-3" class="ColorScheme-Text" height="11" width="0" y="746.94" x="505.86" fill="currentColor"/>
  <rect id="rect4035-59-1-1" class="ColorScheme-Text" height="11" width="0" y="746.94" x="505.86" fill="currentColor"/>
  <path id="rect4194" opacity=".5" d="m14 5a3 3 0 0 0 -2.824 2h-7.176v2h7.174a3 3 0 0 0 2.826 2 3 3 0 0 0 2.824 -2h1.176v-2h-1.174a3 3 0 0 0 -2.826 -2zm-5 6a3 3 0 0 0 -2.8242 2h-2.1758v2h2.1738a3 3 0 0 0 2.8262 2 3 3 0 0 0 2.824 -2h6.176v-2h-6.174a3 3 0 0 0 -2.826 -2z" transform="translate(544.57 742.93)"/>
 </g>
</svg>

<?xml version="1.0" encoding="UTF-8" standalone="no"?>
<!-- Created with Inkscape (http://www.inkscape.org/) -->

<svg
   xmlns:dc="http://purl.org/dc/elements/1.1/"
   xmlns:cc="http://creativecommons.org/ns#"
   xmlns:rdf="http://www.w3.org/1999/02/22-rdf-syntax-ns#"
   xmlns:svg="http://www.w3.org/2000/svg"
   xmlns="http://www.w3.org/2000/svg"
   xmlns:sodipodi="http://sodipodi.sourceforge.net/DTD/sodipodi-0.dtd"
   xmlns:inkscape="http://www.inkscape.org/namespaces/inkscape"
   width="22"
   height="22"
   id="svg4355"
   version="1.1"
   inkscape:version="0.91 r13725"
   sodipodi:docname="adjustlevels.svg">
  <defs
     id="defs4357">
    <style
       type="text/css"
       id="current-color-scheme">
      .ColorScheme-Text {
        color:#4d4d4d;
      }
      .ColorScheme-Background {
        color:#eff0f1;
      }
      .ColorScheme-Highlight {
        color:#3daee9;
      }
      .ColorScheme-ViewText {
        color:#31363b;
      }
      .ColorScheme-ViewBackground {
        color:#fcfcfc;
      }
      .ColorScheme-ViewHover {
        color:#93cee9;
      }
      .ColorScheme-ViewFocus{
        color:#3daee9;
      }
      .ColorScheme-ButtonText {
        color:#31363b;
      }
      .ColorScheme-ButtonBackground {
        color:#eff0f1;
      }
      .ColorScheme-ButtonHover {
        color:#93cee9;
      }
      .ColorScheme-ButtonFocus{
        color:#3daee9;
      }
      </style>
    <clipPath
       clipPathUnits="userSpaceOnUse"
       id="clipPath4160">
      <rect
         style="opacity:1;fill:#f2f2f2;fill-opacity:1;stroke:none;stroke-opacity:1"
         id="rect4162"
         width="1"
         height="1"
         x="7"
         y="1023.3622" />
    </clipPath>
  </defs>
  <sodipodi:namedview
     id="base"
     pagecolor="#ffffff"
     bordercolor="#666666"
     borderopacity="1.0"
     inkscape:pageopacity="0.0"
     inkscape:pageshadow="2"
     inkscape:zoom="22.627417"
     inkscape:cx="4.6525904"
     inkscape:cy="11.51795"
     inkscape:document-units="px"
     inkscape:current-layer="layer1"
     showgrid="false"
     width="0px"
     height="0px"
     fit-margin-top="0"
     fit-margin-left="0"
     fit-margin-right="0"
     fit-margin-bottom="0"
     inkscape:window-width="1600"
     inkscape:window-height="847"
     inkscape:window-x="0"
     inkscape:window-y="30"
     inkscape:window-maximized="1"
     inkscape:showpageshadow="false"
     inkscape:snap-bbox="true"
     inkscape:snap-global="true"
     inkscape:object-nodes="true"
     showguides="false">
    <inkscape:grid
       type="xygrid"
       id="grid4114" />
    <sodipodi:guide
       position="2,13"
       orientation="18,0"
       id="guide4120" />
    <sodipodi:guide
       position="2.0000011,1.9999962"
       orientation="0,18"
       id="guide4122" />
    <sodipodi:guide
       position="20.000001,1.9999962"
       orientation="-18,0"
       id="guide4124" />
    <sodipodi:guide
       position="20.000001,19.999996"
       orientation="0,-18"
       id="guide4126" />
    <sodipodi:guide
       position="3,6"
       orientation="16,0"
       id="guide4128" />
    <sodipodi:guide
       position="3.0000011,2.9999962"
       orientation="0,16"
       id="guide4130" />
    <sodipodi:guide
       position="19.000001,2.9999962"
       orientation="-16,0"
       id="guide4132" />
    <sodipodi:guide
       position="6,19"
       orientation="0,-16"
       id="guide4134" />
  </sodipodi:namedview>
  <metadata
     id="metadata4360">
    <rdf:RDF>
      <cc:Work
         rdf:about="">
        <dc:format>image/svg+xml</dc:format>
        <dc:type
           rdf:resource="http://purl.org/dc/dcmitype/StillImage" />
        <dc:title></dc:title>
      </cc:Work>
    </rdf:RDF>
  </metadata>
  <g
     inkscape:label="Capa 1"
     inkscape:groupmode="layer"
     id="layer1"
     transform="translate(-544.57141,-742.93359)">
    <rect
       style="fill:currentColor;fill-opacity:1;stroke:none"
       id="rect4035"
       width="0"
       height="10.999983"
       x="507.15402"
       y="747.55408"
       class="ColorScheme-Text" />
    <rect
       style="fill:currentColor;fill-opacity:1;stroke:none"
       id="rect4035-5"
       width="0"
       height="10.999983"
       x="525.19482"
       y="745.50281"
       class="ColorScheme-Text" />
    <rect
       style="fill:currentColor;fill-opacity:1;stroke:none"
       id="rect4035-8"
       width="0"
       height="10.999983"
       x="507.15402"
       y="747.55408"
       class="ColorScheme-Text" />
    <rect
       style="fill:currentColor;fill-opacity:1;stroke:none"
       id="rect4035-59"
       width="0"
       height="10.999983"
       x="507.15402"
       y="747.55408"
       class="ColorScheme-Text" />
    <rect
       style="fill:currentColor;fill-opacity:1;stroke:none"
       id="rect4035-6"
       width="0"
       height="10.999983"
       x="499.84589"
       y="742.71948"
       class="ColorScheme-Text" />
    <rect
       style="fill:currentColor;fill-opacity:1;stroke:none"
       id="rect4035-5-1"
       width="0"
       height="10.999983"
       x="517.88666"
       y="740.66809"
       class="ColorScheme-Text" />
    <rect
       style="fill:currentColor;fill-opacity:1;stroke:none"
       id="rect4035-8-3"
       width="0"
       height="10.999983"
       x="499.84589"
       y="742.71948"
       class="ColorScheme-Text" />
    <rect
       style="fill:currentColor;fill-opacity:1;stroke:none"
       id="rect4035-59-4"
       width="0"
       height="10.999983"
       x="499.84589"
       y="742.71948"
       class="ColorScheme-Text" />
    <rect
       style="fill:currentColor;fill-opacity:1;stroke:none"
       id="rect4035-1"
       width="0"
       height="10.999983"
       x="505.86105"
       y="746.93567"
       class="ColorScheme-Text" />
    <rect
       style="fill:currentColor;fill-opacity:1;stroke:none"
       id="rect4035-5-0"
       width="0"
       height="10.999983"
       x="523.90186"
       y="744.8844"
       class="ColorScheme-Text" />
    <rect
       style="fill:currentColor;fill-opacity:1;stroke:none"
       id="rect4035-8-1"
       width="0"
       height="10.999983"
       x="505.86105"
       y="746.93567"
       class="ColorScheme-Text" />
    <rect
       style="fill:currentColor;fill-opacity:1;stroke:none"
       id="rect4035-59-1"
       width="0"
       height="10.999983"
       x="505.86105"
       y="746.93567"
       class="ColorScheme-Text" />
    <rect
       y="747.55408"
       x="507.15402"
       height="10.999983"
       width="0"
       id="rect4035-7"
       style="fill:currentColor;fill-opacity:1;stroke:none"
       class="ColorScheme-Text" />
    <rect
       y="745.50281"
       x="525.19482"
       height="10.999983"
       width="0"
       id="rect4035-5-7"
       style="fill:currentColor;fill-opacity:1;stroke:none"
       class="ColorScheme-Text" />
    <rect
       y="747.55408"
       x="507.15402"
       height="10.999983"
       width="0"
       id="rect4035-8-16"
       style="fill:currentColor;fill-opacity:1;stroke:none"
       class="ColorScheme-Text" />
    <rect
       y="747.55408"
       x="507.15402"
       height="10.999983"
       width="0"
       id="rect4035-59-18"
       style="fill:currentColor;fill-opacity:1;stroke:none"
       class="ColorScheme-Text" />
    <rect
       y="742.71948"
       x="499.84589"
       height="10.999983"
       width="0"
       id="rect4035-6-5"
       style="fill:currentColor;fill-opacity:1;stroke:none"
       class="ColorScheme-Text" />
    <rect
       y="740.66809"
       x="517.88666"
       height="10.999983"
       width="0"
       id="rect4035-5-1-8"
       style="fill:currentColor;fill-opacity:1;stroke:none"
       class="ColorScheme-Text" />
    <rect
       y="742.71948"
       x="499.84589"
       height="10.999983"
       width="0"
       id="rect4035-8-3-8"
       style="fill:currentColor;fill-opacity:1;stroke:none"
       class="ColorScheme-Text" />
    <rect
       y="742.71948"
       x="499.84589"
       height="10.999983"
       width="0"
       id="rect4035-59-4-7"
       style="fill:currentColor;fill-opacity:1;stroke:none"
       class="ColorScheme-Text" />
    <rect
       y="746.93567"
       x="505.86105"
       height="10.999983"
       width="0"
       id="rect4035-1-7"
       style="fill:currentColor;fill-opacity:1;stroke:none"
       class="ColorScheme-Text" />
    <rect
       y="744.8844"
       x="523.90186"
       height="10.999983"
       width="0"
       id="rect4035-5-0-8"
       style="fill:currentColor;fill-opacity:1;stroke:none"
       class="ColorScheme-Text" />
    <rect
       y="746.93567"
       x="505.86105"
       height="10.999983"
       width="0"
       id="rect4035-8-1-0"
       style="fill:currentColor;fill-opacity:1;stroke:none"
       class="ColorScheme-Text" />
    <rect
       y="746.93567"
       x="505.86105"
       height="10.999983"
       width="0"
       id="rect4035-59-1-3"
       style="fill:currentColor;fill-opacity:1;stroke:none"
       class="ColorScheme-Text" />
    <rect
       y="750.93359"
       x="504.62219"
       height="10.999983"
       width="0"
       id="rect4035-0"
       style="fill:currentColor;fill-opacity:1;stroke:none"
       class="ColorScheme-Text" />
    <rect
       y="748.88232"
       x="522.66296"
       height="10.999983"
       width="0"
       id="rect4035-5-5"
       style="fill:currentColor;fill-opacity:1;stroke:none"
       class="ColorScheme-Text" />
    <rect
       y="750.93359"
       x="504.62219"
       height="10.999983"
       width="0"
       id="rect4035-8-6"
       style="fill:currentColor;fill-opacity:1;stroke:none"
       class="ColorScheme-Text" />
    <rect
       y="750.93359"
       x="504.62219"
       height="10.999983"
       width="0"
       id="rect4035-59-11"
       style="fill:currentColor;fill-opacity:1;stroke:none"
       class="ColorScheme-Text" />
    <rect
       y="747.29968"
       x="488.63409"
       height="10.999983"
       width="0"
       id="rect4035-9"
       style="fill:currentColor;fill-opacity:1;stroke:none"
       class="ColorScheme-Text" />
    <rect
       y="745.24841"
       x="506.67487"
       height="10.999983"
       width="0"
       id="rect4035-5-8"
       style="fill:currentColor;fill-opacity:1;stroke:none"
       class="ColorScheme-Text" />
    <rect
       y="747.29968"
       x="488.63409"
       height="10.999983"
       width="0"
       id="rect4035-8-0"
       style="fill:currentColor;fill-opacity:1;stroke:none"
       class="ColorScheme-Text" />
    <rect
       y="747.29968"
       x="488.63409"
       height="10.999983"
       width="0"
       id="rect4035-59-1-8"
       style="fill:currentColor;fill-opacity:1;stroke:none"
       class="ColorScheme-Text" />
    <rect
       style="fill:currentColor;fill-opacity:1;stroke:none"
       id="rect4035-3"
       width="0"
       height="10.999983"
       x="507.15402"
       y="747.55408"
       class="ColorScheme-Text" />
    <rect
       style="fill:currentColor;fill-opacity:1;stroke:none"
       id="rect4035-5-2"
       width="0"
       height="10.999983"
       x="525.19482"
       y="745.50281"
       class="ColorScheme-Text" />
    <rect
       style="fill:currentColor;fill-opacity:1;stroke:none"
       id="rect4035-8-7"
       width="0"
       height="10.999983"
       x="507.15402"
       y="747.55408"
       class="ColorScheme-Text" />
    <rect
       style="fill:currentColor;fill-opacity:1;stroke:none"
       id="rect4035-59-43"
       width="0"
       height="10.999983"
       x="507.15402"
       y="747.55408"
       class="ColorScheme-Text" />
    <rect
       style="fill:currentColor;fill-opacity:1;stroke:none"
       id="rect4035-6-2"
       width="0"
       height="10.999983"
       x="499.84589"
       y="742.71948"
       class="ColorScheme-Text" />
    <rect
       style="fill:currentColor;fill-opacity:1;stroke:none"
       id="rect4035-5-1-6"
       width="0"
       height="10.999983"
       x="517.88666"
       y="740.66809"
       class="ColorScheme-Text" />
    <rect
       style="fill:currentColor;fill-opacity:1;stroke:none"
       id="rect4035-8-3-4"
       width="0"
       height="10.999983"
       x="499.84589"
       y="742.71948"
       class="ColorScheme-Text" />
    <rect
       style="fill:currentColor;fill-opacity:1;stroke:none"
       id="rect4035-59-4-8"
       width="0"
       height="10.999983"
       x="499.84589"
       y="742.71948"
       class="ColorScheme-Text" />
    <rect
       style="fill:currentColor;fill-opacity:1;stroke:none"
       id="rect4035-1-8"
       width="0"
       height="10.999983"
       x="505.86105"
       y="746.93567"
       class="ColorScheme-Text" />
    <rect
       style="fill:currentColor;fill-opacity:1;stroke:none"
       id="rect4035-5-0-0"
       width="0"
       height="10.999983"
       x="523.90186"
       y="744.8844"
       class="ColorScheme-Text" />
    <rect
       style="fill:currentColor;fill-opacity:1;stroke:none"
       id="rect4035-8-1-3"
       width="0"
       height="10.999983"
       x="505.86105"
       y="746.93567"
       class="ColorScheme-Text" />
    <rect
       style="fill:currentColor;fill-opacity:1;stroke:none"
       id="rect4035-59-1-1"
       width="0"
       height="10.999983"
       x="505.86105"
       y="746.93567"
       class="ColorScheme-Text" />
    <path
       style="opacity:0.5;fill:#000000;fill-opacity:1;stroke:none;stroke-width:2;stroke-linecap:round;stroke-linejoin:round;stroke-miterlimit:4;stroke-dasharray:none;stroke-opacity:1"
       d="M 14 5 A 3 3 0 0 0 11.175781 7 L 4 7 L 4 9 L 11.173828 9 A 3 3 0 0 0 14 11 A 3 3 0 0 0 16.824219 9 L 18 9 L 18 7 L 16.826172 7 A 3 3 0 0 0 14 5 z M 9 11 A 3 3 0 0 0 6.1757812 13 L 4 13 L 4 15 L 6.1738281 15 A 3 3 0 0 0 9 17 A 3 3 0 0 0 11.824219 15 L 18 15 L 18 13 L 11.826172 13 A 3 3 0 0 0 9 11 z "
       transform="translate(544.57141,742.93359)"
       id="rect4194" />
  </g>
</svg>
